; generated by PrusaSlicer 2.4.2+x64 on 2022-05-06 at 12:31:06 UTC

; 

; external perimeters extrusion width = 0.45mm
; perimeters extrusion width = 0.45mm
; infill extrusion width = 0.45mm
; solid infill extrusion width = 0.45mm
; top infill extrusion width = 0.40mm
; support material extrusion width = 0.35mm
; first layer extrusion width = 0.42mm

M73 P0 R150
M73 Q0 S150
M201 X1000 Y1000 Z200 E5000 ; sets maximum accelerations, mm/sec^2
M203 X200 Y200 Z12 E120 ; sets maximum feedrates, mm / sec
M204 P1250 R1250 T1250 ; sets acceleration (P, T) and retract acceleration (R), mm/sec^2
M205 X8.00 Y8.00 Z0.40 E4.50 ; sets the jerk limits, mm/sec
M205 S0 T0 ; sets the minimum extruding and travel feed rate, mm/sec
M107
;TYPE:Custom
M862.3 P "MK3S" ; printer model check
M862.1 P0.4 ; nozzle diameter check
M115 U3.10.1 ; tell printer latest fw version
G90 ; use absolute coordinates
M83 ; extruder relative mode
M104 S215 ; set extruder temp
M140 S60 ; set bed temp
M190 S60 ; wait for bed temp
M109 S215 ; wait for extruder temp
G28 W ; home all without mesh bed level
G80 ; mesh bed leveling
G1 Z0.2 F720
G1 Y-3 F1000 ; go outside print area
G92 E0
G1 X60 E9 F1000 ; intro line
G1 X100 E12.5 F1000 ; intro line
G92 E0
M221 S95

; Don't change E values below. Excessive value can damage the printer.
M907 E430 ; set extruder motor current
G21 ; set units to millimeters
G90 ; use absolute coordinates
M83 ; use relative distances for extrusion
M900 K0.05 ; Filament gcode LA 1.5
M900 K30 ; Filament gcode LA 1.0
M107
;LAYER_CHANGE
;Z:0.2
;HEIGHT:0.2
;BEFORE_LAYER_CHANGE
G92 E0.0
;0.2


G1 E-.8 F2100
G1 Z.4 F720
;AFTER_LAYER_CHANGE
;0.2
G1 X74.715 Y59.536 F10800
G1 Z.2 F720
G1 E.8 F2100
M204 S800
;TYPE:Skirt/Brim
;WIDTH:0.42
G1 F1200
G1 X77.965 Y55.475 E.16308
G1 X81.268 Y51.966 E.15111
G1 X82.999 Y51.218 E.05912
G1 X166.999 Y51.218 E2.63376
G1 X168.729 Y51.965 E.05909
M73 P0 R149
G1 X172.125 Y55.58 E.15552
G1 X175.223 Y59.454 E.15552
G1 X177.903 Y63.401 E.1496
G1 X180.448 Y67.877 E.16144
G1 X182.543 Y72.373 E.15552
G1 X184.273 Y77.021 E.15552
G1 X185.584 Y81.609 E.1496
G1 X186.572 Y86.47 E.15552
G1 X187.185 Y91.582 E.16144
G1 X187.374 Y96.539 E.15555
G1 X187.181 Y101.355 E.15111
G1 X186.586 Y106.33 E.1571
G1 X185.548 Y111.426 E.16308
G1 X184.15 Y116.238 E.15709
G1 X182.371 Y120.921 E.15709
G1 X180.31 Y125.278 E.15111
G1 X177.817 Y129.624 E.15709
G1 X174.984 Y133.756 E.15709
G1 X171.701 Y137.791 E.16308
G1 X168.232 Y141.406 E.15709
G1 X164.632 Y144.61 E.15111
G1 X160.638 Y147.635 E.1571
G1 X156.414 Y150.33 E.15709
G1 X151.816 Y152.76 E.16308
G1 X147.209 Y154.731 E.1571
G1 X142.643 Y156.272 E.15111
G1 X137.784 Y157.495 E.15709
G1 X132.653 Y158.348 E.16308
G1 X127.66 Y158.762 E.15709
G1 X122.65 Y158.775 E.1571
G1 X117.655 Y158.385 E.15709
G1 X112.894 Y157.633 E.15111
G1 X108.022 Y156.464 E.15709
G1 X103.081 Y154.841 E.16308
G1 X98.465 Y152.894 E.15709
G1 X94.02 Y150.582 E.15709
G1 X89.932 Y148.029 E.15111
G1 X86.002 Y145.119 E.15332
G1 X82.13 Y141.753 E.16086
G1 X78.632 Y138.166 E.1571
G1 X75.317 Y134.158 E.16307
G1 X72.45 Y130.049 E.15709
G1 X70.013 Y125.892 E.15111
G1 X67.858 Y121.449 E.15483
G1 X66.009 Y116.714 E.15935
G1 X64.573 Y111.914 E.15709
G1 X63.526 Y107.015 E.15709
G1 X62.859 Y101.857 E.16308
G1 X62.625 Y96.852 E.15709
G1 X62.78 Y92.035 E.15111
G1 X63.334 Y87.055 E.15709
G1 X64.331 Y81.95 E.16308
G1 X65.69 Y77.128 E.15709
G1 X67.432 Y72.43 E.15709
G1 X69.457 Y68.057 E.15111
G1 X71.915 Y63.691 E.15709
G1 X74.682 Y59.586 E.15521
M204 S1000
; printing object plate.stl id:0 copy 0
;WIPE_START
G1 F8640
G1 X76.736 Y57.014 E-.76
;WIPE_END
G1 E-.04 F2100
G1 Z.6 F720
G1 X82.212 Y66.231 F10800
G1 Z.2 F720
G1 E.8 F2100
M204 S800
;TYPE:Perimeter
G1 F1200
G1 X167.786 Y66.231 E2.68314
G1 X167.781 Y56.048 E.31928
G1 X167.749 Y55.487 E.01763
G1 X168.053 Y55.853 E.01494
G1 X169.676 Y57.584 E.07439
G1 X172.623 Y61.258 E.14765
G1 X175.268 Y65.153 E.14763
G1 X177.595 Y69.246 E.14763
G1 X179.59 Y73.511 E.14763
G1 X181.24 Y77.921 E.14763
G1 X182.534 Y82.448 E.14763
G1 X183.464 Y87.064 E.14763
G1 X184.024 Y91.739 E.14763
G1 X184.211 Y96.444 E.14763
G1 X184.02 Y101.196 E.14913
G1 X183.448 Y105.918 E.14913
G1 X182.499 Y110.579 E.14913
G1 X181.18 Y115.148 E.14913
G1 X179.497 Y119.597 E.14913
G1 X177.463 Y123.896 E.14913
G1 X175.09 Y128.018 E.14913
G1 X172.395 Y131.937 E.14913
G1 X169.393 Y135.626 E.14913
G1 X166.105 Y139.063 E.14913
G1 X162.552 Y142.225 E.14913
G1 X158.756 Y145.091 E.14913
G1 X154.743 Y147.643 E.14913
G1 X150.538 Y149.865 E.14913
G1 X146.168 Y151.743 E.14913
G1 X141.661 Y153.263 E.14913
G1 X137.047 Y154.417 E.14913
G1 X132.355 Y155.197 E.14913
G1 X127.616 Y155.598 E.14913
G1 X122.86 Y155.618 E.14913
G1 X118.117 Y155.255 E.14913
G1 X113.419 Y154.513 E.14913
G1 X108.796 Y153.396 E.14913
G1 X104.277 Y151.912 E.14913
G1 X99.892 Y150.07 E.14913
G1 X95.669 Y147.882 E.14913
G1 X91.635 Y145.362 E.14913
G1 X87.817 Y142.526 E.14913
G1 X84.238 Y139.393 E.14913
G1 X80.923 Y135.983 E.14913
G1 X77.891 Y132.318 E.14913
M73 Q0 S149
G1 X75.164 Y128.421 E.14913
G1 X72.758 Y124.319 E.14913
G1 X70.69 Y120.036 E.14913
G1 X68.971 Y115.601 E.14913
G1 X67.614 Y111.042 E.14913
G1 X66.628 Y106.389 E.14913
G1 X66.018 Y101.672 E.14913
G1 X65.789 Y96.922 E.14913
G1 X65.941 Y92.168 E.14913
G1 X66.475 Y87.442 E.14913
G1 X67.386 Y82.774 E.14913
G1 X68.669 Y78.194 E.14913
G1 X70.316 Y73.731 E.14913
G1 X72.315 Y69.416 E.14913
G1 X74.654 Y65.275 E.14913
G1 X77.319 Y61.335 E.14913
G1 X80.291 Y57.62 E.14915
G1 X81.929 Y55.872 E.07511
G1 X82.249 Y55.488 E.01568
G1 X82.217 Y56.048 E.01757
G1 X82.212 Y66.171 E.3174
M204 S1000
G1 X82.589 Y65.854 F10800
M204 S800
;TYPE:External perimeter
G1 F1200
G1 X167.409 Y65.854 E2.65948
G1 X167.404 Y56.058 E.30714
G1 X167.377 Y55.55 E.01597
G1 X167.304 Y55.041 E.01611
G1 X167.209 Y54.562 E.01531
G1 X167.209 Y54.124 E.01372
G1 X167.488 Y54.421 E.01277
G1 X168.019 Y55.222 E.03015
G1 X168.336 Y55.604 E.01554
G1 X169.961 Y57.337 E.07449
G1 X172.926 Y61.033 E.14858
G1 X175.588 Y64.953 E.14857
G1 X177.931 Y69.073 E.14857
G1 X179.938 Y73.365 E.14857
G1 X181.598 Y77.803 E.14857
G1 X182.9 Y82.359 E.14857
G1 X183.836 Y87.004 E.14857
G1 X184.4 Y91.709 E.14857
G1 X184.589 Y96.444 E.14857
G1 X184.396 Y101.227 E.15008
G1 X183.821 Y105.978 E.15008
G1 X182.866 Y110.669 E.15008
G1 X181.538 Y115.267 E.15008
G1 X179.844 Y119.744 E.15008
G1 X177.797 Y124.071 E.15008
G1 X175.41 Y128.22 E.15008
G1 X172.697 Y132.163 E.15008
G1 X169.676 Y135.876 E.15008
G1 X166.367 Y139.335 E.15008
G1 X162.791 Y142.516 E.15008
G1 X158.971 Y145.401 E.15008
G1 X154.933 Y147.97 E.15008
G1 X150.7 Y150.206 E.15008
G1 X146.303 Y152.095 E.15008
G1 X141.767 Y153.626 E.15008
G1 X137.124 Y154.787 E.15008
G1 X132.402 Y155.572 E.15008
G1 X127.633 Y155.975 E.15008
G1 X122.846 Y155.995 E.15008
G1 X118.073 Y155.63 E.15008
G1 X113.345 Y154.883 E.15008
G1 X108.693 Y153.759 E.15008
G1 X104.145 Y152.265 E.15008
G1 X99.732 Y150.412 E.15008
G1 X95.482 Y148.21 E.15008
G1 X91.423 Y145.674 E.15008
G1 X87.58 Y142.82 E.15008
G1 X83.978 Y139.667 E.15008
G1 X80.642 Y136.235 E.15008
G1 X77.591 Y132.547 E.15008
G1 X74.846 Y128.625 E.15008
G1 X72.425 Y124.496 E.15008
G1 X70.343 Y120.186 E.15008
G1 X68.614 Y115.723 E.15008
G1 X67.249 Y111.135 E.15008
G1 X66.256 Y106.453 E.15008
G1 X65.642 Y101.706 E.15008
G1 X65.411 Y96.925 E.15008
G1 X65.565 Y92.141 E.15008
G1 X66.102 Y87.384 E.15008
G1 X67.019 Y82.686 E.15008
G1 X68.31 Y78.077 E.15008
G1 X69.967 Y73.587 E.15008
G1 X71.979 Y69.244 E.15008
G1 X74.334 Y65.076 E.15008
G1 X77.015 Y61.111 E.15008
G1 X80.005 Y57.373 E.15009
G1 X81.646 Y55.622 E.07524
G1 X81.967 Y55.238 E.01569
G1 X82.503 Y54.428 E.03047
G1 X82.789 Y54.125 E.01306
G1 X82.789 Y54.562 E.01371
G1 X82.694 Y55.041 E.01531
G1 X82.621 Y55.55 E.01611
G1 X82.594 Y56.058 E.01597
G1 X82.589 Y65.794 E.30526
M204 S1000
G1 X82.588 Y66.254 F10800
;WIPE_START
G1 F8640
G1 X85.88 Y65.796 E-.76
;WIPE_END
G1 E-.04 F2100
G1 Z.6 F720
G1 X82.314 Y55.311 F10800
G1 Z.2 F720
G1 E.8 F2100
M204 S800
;TYPE:Gap fill
;WIDTH:0.185981
G1 F1200
G1 X82.439 Y54.996 E.00403
M204 S1000
M204 S800
;WIDTH:0.184341
G1 X82.488 Y54.875 E.00153
M204 S1000
M204 S800
;WIDTH:0.138831
G1 X82.538 Y54.754 E.00104
M204 S1000
;WIPE_START
G1 F8640
G1 X82.488 Y54.875 E-.0301
;WIPE_END
G1 E-.7699 F2100
G1 Z.6 F720
G1 X167.461 Y54.758 F10800
G1 Z.2 F720
G1 E.8 F2100
M204 S800
;WIDTH:0.138169
G1 F1200
G1 X167.51 Y54.877 E.00102
M204 S1000
M204 S800
;WIDTH:0.183019
G1 X167.559 Y54.996 E.0015
M204 S1000
M204 S800
;WIDTH:0.18465
G1 X167.683 Y55.309 E.00398
M204 S1000
;WIPE_START
G1 F8640
G1 X167.559 Y54.996 E-.07794
;WIPE_END
G1 E-.72206 F2100
G1 Z.6 F720
G1 X172.264 Y60.991 F10800
G1 Z.2 F720
G1 E.8 F2100
M204 S800
;TYPE:Solid infill
;WIDTH:0.42041
G1 F1200
G1 X168.064 Y56.791 E.1864
G1 X168.065 Y57.325 E.01677
G1 X172.882 Y62.143 E.21386
G1 X174.012 Y63.807 E.06312
G1 X168.065 Y57.86 E.26399
G1 X168.065 Y58.394 E.01677
G1 X175.099 Y65.427 E.31222
G1 X175.802 Y66.665 E.04468
M73 P0 R148
G1 X168.065 Y58.928 E.34344
G1 X168.066 Y59.462 E.01677
G1 X176.506 Y67.902 E.37466
G1 X177.21 Y69.14 E.04468
G1 X168.066 Y59.996 E.40588
G1 X168.066 Y60.53 E.01677
G1 X177.723 Y70.187 E.42868
G1 X178.192 Y71.19 E.03475
G1 X168.067 Y61.064 E.44949
G1 X168.067 Y61.598 E.01677
G1 X178.662 Y72.193 E.4703
G1 X179.131 Y73.196 E.03475
G1 X168.067 Y62.133 E.49111
G1 X168.067 Y62.667 E.01677
G1 X179.513 Y74.112 E.50808
G1 X179.832 Y74.965 E.02858
G1 X168.068 Y63.201 E.52222
G1 X168.068 Y63.735 E.01677
G1 X180.151 Y75.818 E.53637
G1 X180.47 Y76.671 E.02858
G1 X168.068 Y64.269 E.55052
G1 X168.068 Y64.803 E.01677
G1 X180.789 Y77.524 E.56467
G1 X180.971 Y78.01 E.01628
G1 X181.063 Y78.331 E.0105
G1 X168.069 Y65.337 E.5768
G1 X168.069 Y65.872 E.01677
G1 X181.276 Y79.079 E.58627
G1 X181.49 Y79.826 E.0244
G1 X168.069 Y66.406 E.59575
G1 X168.069 Y66.514 E.00339
G1 X167.644 Y66.514 E.01337
G1 X181.704 Y80.574 E.62413
G1 X181.917 Y81.321 E.0244
G1 X167.11 Y66.514 E.65731
G1 X166.576 Y66.514 E.01676
G1 X182.131 Y82.069 E.69049
G1 X182.259 Y82.515 E.01457
G1 X182.313 Y82.785 E.00862
G1 X166.042 Y66.514 E.72226
G1 X165.508 Y66.514 E.01676
G1 X182.448 Y83.453 E.75194
G1 X182.582 Y84.122 E.02141
G1 X164.974 Y66.514 E.78162
G1 X164.44 Y66.514 E.01676
G1 X182.717 Y84.79 E.8113
G1 X182.852 Y85.459 E.02141
G1 X163.907 Y66.514 E.84097
M73 Q1 S149
G1 X163.373 Y66.514 E.01676
M73 P1 R148
G1 X182.986 Y86.127 E.87065
G1 X183.121 Y86.796 E.02141
G1 X162.839 Y66.514 E.90033
G1 X162.305 Y66.514 E.01676
G1 X183.223 Y87.432 E.92854
G1 X183.296 Y88.038 E.01918
G1 X161.771 Y66.514 E.95547
G1 X161.237 Y66.514 E.01676
G1 X183.368 Y88.645 E.98239
G1 X183.441 Y89.251 E.01918
G1 X160.703 Y66.514 E1.00932
G1 X160.17 Y66.514 E.01676
M73 Q1 S148
G1 X183.514 Y89.858 E1.03624
G1 X183.586 Y90.464 E.01918
G1 X159.636 Y66.514 E1.06317
G1 X159.102 Y66.514 E.01676
G1 X183.659 Y91.071 E1.0901
G1 X183.732 Y91.678 E.01918
G1 X158.568 Y66.514 E1.11702
G1 X158.034 Y66.514 E.01676
G1 X183.761 Y92.241 E1.14201
G1 X183.783 Y92.797 E.01746
G1 X157.5 Y66.514 E1.16669
G1 X156.967 Y66.514 E.01676
G1 X183.805 Y93.353 E1.19137
G1 X183.827 Y93.908 E.01746
G1 X156.433 Y66.514 E1.21605
G1 X155.899 Y66.514 E.01676
G1 X183.85 Y94.464 E1.24073
G1 X183.872 Y95.02 E.01746
G1 X155.365 Y66.514 E1.26541
G1 X154.831 Y66.514 E.01676
G1 X183.894 Y95.576 E1.29009
G1 X183.916 Y96.132 E.01746
G1 X154.297 Y66.514 E1.31477
G1 X153.763 Y66.514 E.01676
G1 X183.919 Y96.67 E1.33861
G1 X183.899 Y97.183 E.01612
G1 X153.23 Y66.514 E1.3614
G1 X152.696 Y66.514 E.01676
G1 X183.878 Y97.696 E1.38418
G1 X183.857 Y98.209 E.01612
M73 P1 R147
G1 X152.162 Y66.514 E1.40696
G1 X151.628 Y66.514 E.01676
G1 X183.837 Y98.722 E1.42974
G1 X183.816 Y99.236 E.01612
G1 X151.094 Y66.514 E1.45252
G1 X150.56 Y66.514 E.01676
G1 X183.795 Y99.749 E1.47531
G1 X183.775 Y100.262 E.01612
G1 X150.026 Y66.514 E1.49809
G1 X149.493 Y66.514 E.01676
G1 X183.754 Y100.775 E1.52087
G1 X183.725 Y101.28 E.01587
G1 X148.959 Y66.514 E1.54328
G1 X148.425 Y66.514 E.01676
G1 X183.668 Y101.756 E1.56442
G1 X183.61 Y102.233 E.01506
G1 X147.891 Y66.514 E1.58556
G1 X147.357 Y66.514 E.01676
G1 X183.552 Y102.709 E1.6067
G1 X183.495 Y103.185 E.01506
G1 X146.823 Y66.514 E1.62783
G1 X146.289 Y66.514 E.01676
G1 X183.437 Y103.661 E1.64897
G1 X183.379 Y104.137 E.01506
G1 X145.756 Y66.514 E1.67011
G1 X145.222 Y66.514 E.01676
M73 Q1 S147
G1 X183.322 Y104.614 E1.69125
G1 X183.264 Y105.09 E.01506
G1 X144.688 Y66.514 E1.71238
G1 X144.154 Y66.514 E.01676
G1 X183.206 Y105.566 E1.73352
G1 X183.137 Y106.03 E.01474
G1 X143.62 Y66.514 E1.75414
G1 X143.086 Y66.514 E.01676
G1 X183.047 Y106.474 E1.77383
G1 X182.956 Y106.918 E.01421
G1 X142.553 Y66.514 E1.79352
G1 X142.019 Y66.514 E.01676
G1 X182.866 Y107.361 E1.81321
G1 X182.776 Y107.805 E.01421
M73 P2 R147
M73 Q2 S147
G1 X141.485 Y66.514 E1.8329
G1 X140.951 Y66.514 E.01676
G1 X182.685 Y108.248 E1.85259
G1 X182.595 Y108.692 E.01421
G1 X140.417 Y66.514 E1.87228
G1 X139.883 Y66.514 E.01676
M73 P2 R146
G1 X182.505 Y109.135 E1.89197
G1 X182.414 Y109.579 E.01421
G1 X139.349 Y66.514 E1.91165
G1 X138.816 Y66.514 E.01676
G1 X182.324 Y110.022 E1.93134
G1 X182.234 Y110.466 E.01421
G1 X138.282 Y66.514 E1.95103
G1 X137.748 Y66.514 E.01676
G1 X182.117 Y110.883 E1.96955
G1 X181.998 Y111.297 E.01353
G1 X137.214 Y66.514 E1.98794
G1 X136.68 Y66.514 E.01676
G1 X181.878 Y111.711 E2.00632
G1 X181.758 Y112.126 E.01353
G1 X136.146 Y66.514 E2.02471
G1 X135.612 Y66.514 E.01676
G1 X181.639 Y112.54 E2.0431
G1 X181.519 Y112.954 E.01353
G1 X135.079 Y66.514 E2.06148
G1 X134.545 Y66.514 E.01676
M73 Q2 S146
G1 X181.399 Y113.368 E2.07987
G1 X181.28 Y113.782 E.01353
G1 X134.011 Y66.514 E2.09826
G1 X133.477 Y66.514 E.01676
G1 X181.16 Y114.197 E2.11664
G1 X181.04 Y114.611 E.01353
G1 X132.943 Y66.514 E2.13503
G1 X132.409 Y66.514 E.01676
G1 X180.921 Y115.025 E2.15341
G1 X180.776 Y115.415 E.01304
G1 X131.876 Y66.514 E2.17071
G1 X131.342 Y66.514 E.01676
G1 X180.63 Y115.802 E2.1879
G1 X180.483 Y116.189 E.013
G1 X130.808 Y66.514 E2.2051
G1 X130.274 Y66.514 E.01676
M73 P2 R145
G1 X180.337 Y116.577 E2.22229
G1 X180.19 Y116.964 E.013
G1 X129.74 Y66.514 E2.23949
G1 X129.206 Y66.514 E.01676
G1 X180.044 Y117.351 E2.25668
G1 X179.897 Y117.739 E.013
G1 X128.672 Y66.514 E2.27387
G1 X128.139 Y66.514 E.01676
G1 X179.751 Y118.126 E2.29107
G1 X179.604 Y118.513 E.013
G1 X127.605 Y66.514 E2.30826
G1 X127.071 Y66.514 E.01676
M73 P3 R145
M73 Q3 S146
G1 X179.458 Y118.901 E2.32546
G1 X179.311 Y119.288 E.013
G1 X126.537 Y66.514 E2.34265
G1 X126.003 Y66.514 E.01676
G1 X179.153 Y119.663 E2.35931
G1 X178.981 Y120.026 E.01258
M73 Q3 S145
G1 X125.469 Y66.514 E2.37539
G1 X124.935 Y66.514 E.01676
G1 X178.81 Y120.388 E2.39148
G1 X178.638 Y120.751 E.01258
G1 X124.402 Y66.514 E2.40757
G1 X123.868 Y66.514 E.01676
G1 X178.467 Y121.113 E2.42365
G1 X178.295 Y121.475 E.01258
G1 X123.334 Y66.514 E2.43974
G1 X122.8 Y66.514 E.01676
G1 X178.124 Y121.838 E2.45583
G1 X177.953 Y122.2 E.01258
G1 X122.266 Y66.514 E2.47191
G1 X121.732 Y66.514 E.01676
M73 P3 R144
G1 X177.781 Y122.563 E2.488
G1 X177.61 Y122.925 E.01258
G1 X121.198 Y66.514 E2.50409
G1 X120.665 Y66.514 E.01676
G1 X177.438 Y123.287 E2.52017
G1 X177.267 Y123.65 E.01258
G1 X120.131 Y66.514 E2.53626
G1 X119.597 Y66.514 E.01676
G1 X177.079 Y123.996 E2.55163
G1 X176.884 Y124.335 E.01227
G1 X119.063 Y66.514 E2.56668
G1 X118.529 Y66.514 E.01676
G1 X176.689 Y124.674 E2.58172
G1 X176.494 Y125.013 E.01227
G1 X117.995 Y66.514 E2.59676
G1 X117.462 Y66.514 E.01676
M73 Q3 S144
G1 X176.299 Y125.351 E2.6118
G1 X176.104 Y125.69 E.01227
G1 X116.928 Y66.514 E2.62684
G1 X116.394 Y66.514 E.01676
G1 X175.909 Y126.029 E2.64188
G1 X175.714 Y126.368 E.01227
G1 X115.86 Y66.514 E2.65692
G1 X115.326 Y66.514 E.01676
M73 P4 R144
G1 X175.519 Y126.707 E2.67196
G1 X175.324 Y127.046 E.01227
M73 Q4 S144
G1 X114.792 Y66.514 E2.687
G1 X114.258 Y66.514 E.01676
M73 P4 R143
G1 X175.129 Y127.384 E2.70204
G1 X174.934 Y127.723 E.01227
G1 X113.725 Y66.514 E2.71708
G1 X113.191 Y66.514 E.01676
G1 X174.726 Y128.049 E2.73155
G1 X174.508 Y128.365 E.01205
G1 X112.657 Y66.514 E2.74559
G1 X112.123 Y66.514 E.01676
